X: 1
T:the Irish Washerwoman (4 part setting)
R:Jig
O:Ireland
O:Scotland
M:6/8
K:D
A2G |\
FDD A,DD | FDF AGF | GEE CEE | GEG BAG |\
FDD A,DD | FDF AGF |
GFG EAG | FDD D2::\
d |\
dAd dAd | dAd fed |
cAc cAc | cAc edc |\
Bdd Add | Gdd Fdd | GFG EAG | FDD D2 ::
A|\
faf dcd | Adf agf | gfg ece | Ace gfe |\
faf dcd | Adf agf |
g>fg e<ag | fdd d2 :|\
e |\
f2f a>gf | A>df a>gf |
e2e g>fe | A>ce g>fe |\
f2f a>gf | A>df a>gf | g>fg e>ag | fdd d2e |
f2f a>gf | A>df a>gf | e2e g>fe | A>ce g>fe |\
f<af d>cd | A>df a>gf | g>fg e>ag | fdd d3 |]
